!!! OTL: Wu^,Geng-,Niao^ (Nightingale)
!!! YEC: Copyright 2001, Chia-wei Lee
!! FOr Voice only
!! [Moderato]
**kern	**silbe
*clefG2	*LXhinhua
*b-:	*ping-ying
*M2/4	*
=9	=9
(q8b-	Yi-
8cc	|
16dd	|
16cc)	|
(8.b-	Geng-
16cc)	|
=10	=10
(8.b-	Yi-
16cc)	|
q8ff	Dian^
4b-	|
=11	=11
8ff	Zheng\
8dd	Hao^
(16cc	Yi-
16ff)	|
8cc	Si
=12	=12
(q4b-	Mian/
4.cc	|
8g)	|
=13	=13
*	*-
q8ff
8dd
(16cc
16ff)
8cc
8b-
=14
(8g
8b)-
4e-
=15
8g
8g
(16f
16g)
(16e-
16d)
=16
2c
=17
(16cc
16ff)
8b-
(16cc
16ff)
8b-
=18
(16cc
16ff
8b-
8g
8f)
=19
(16g
16cc)
(16g
16cc)
(16g
16f)
(16e
16f)
=20
2c
=21
(16ff
16dd)
8ff
8b-
8cc
=22
(4cc
8g
8f)
=23
(16e-
8b)-
16b-
8cc
(16e-
16f)
=24
2c
=25
q8ff
8.dd
16cc
(16cc
16dd)
8b-
=26
q8b-
4cc
4g
=27
q8bb
8ee-
(16dd
16cc)
(16cc
16dd)
8b-
=28
4cc
4g
=29
8cc
q8cc
4ff
(16b
16g)
=30
8b
(16e-
16f)
4c
=31
(16g
16b-)
(16b-
16cc)
q8ff
8b-
(16g
16f)
=32
(16g
16f)
(16e
16f)
q8f
4c
=33
8.f
16g
(16ff
16dd)
8cc
=34
8ff
(16cc
16ff)
4b
=35
8.g
16b-
8b-
(16g
16f)
=36
(q8b-
16g
16f
16e-
16f
4c)
=37
(8.f
16g)
8cc
(16ff
16dd)
=38
q8ee
4.ff
16ff
16dd
=39
(16cc
16ff
8b-
8g
8f)
=40
(16g
16b-)
(16g
16f
8e-
8f)
=41
8g
4cc
(16b-
16g)
=42
(16f
16g)
8e-
(16d
16c)
8B
=43
2c
*-
